app/assets/Appointment icon.svg

<?xml version="1.0" encoding="UTF-8"?>
<svg width="250px" height="248px" viewBox="0 0 250 248" version="1.1" xmlns="http://www.w3.org/2000/svg" xmlns:xlink="http://www.w3.org/1999/xlink">
    <!-- Generator: Sketch 40.3 (33839) - http://www.bohemiancoding.com/sketch -->
    <title>Appointment icon</title>
    <desc>Created with Sketch.</desc>
    <defs>
        <polygon id="path-1" points="126.193982 201.056465 64.7058824 201.056465 64.7058824 43.6120317 126.193982 43.6120317 187.682081 43.6120317 187.682081 201.056465 126.193982 201.056465"></polygon>
        <polygon id="path-3" points="64.7058824 201.664131 187.682205 201.664131 187.682205 44.2196973 64.7058824 44.2196973"></polygon>
    </defs>
    <g id="Page-1" stroke="none" stroke-width="1" fill="none" fill-rule="evenodd">
        <g id="HEATH-HOMEPAGE" transform="translate(-900.000000, -730.000000)">
            <g id="Group-9" transform="translate(241.000000, 705.000000)">
                <g id="Appointment-icon" transform="translate(659.000000, 25.000000)">
                    <g id="Group-3" transform="translate(0.000000, 0.607666)">
                        <ellipse id="Oval" fill="#FA7801" cx="125" cy="123.546512" rx="125" ry="123.546512"></ellipse>
                        <mask id="mask-2" fill="white">
                            <use xlink:href="#path-1"></use>
                        </mask>
                        <g id="Clip-2"></g>
                        <path d="M130.145309,51.3843699 C129.134106,50.3824597 127.737416,49.7631083 126.19423,49.7631083 C124.651043,49.7631083 123.253733,50.3824597 122.243772,51.3843699 C121.233189,52.38505 120.607473,53.7695189 120.607473,55.2979086 C120.607473,56.8275283 121.233189,58.2119972 122.243772,59.2132923 C123.191038,60.1512377 124.477854,60.754598 125.906822,60.8265584 L126.481638,60.8265584 C127.910606,60.754598 129.198043,60.1512377 130.145309,59.2132923 C131.15527,58.2119972 131.780987,56.8275283 131.780987,55.2979086 C131.780987,53.7695189 131.15527,52.38505 130.145309,51.3843699 L130.145309,51.3843699 Z M126.19423,43.6120317 C129.793964,43.6120317 133.052906,43.828528 135.411759,46.1663184 C137.770612,48.5034937 139.229997,51.732486 139.229997,55.2979086 L139.229997,55.2985236 L154.128017,55.2985236 L154.128017,73.7492931 L98.2604434,73.7492931 L98.2604434,55.2985236 L113.158463,55.2985236 L113.158463,55.2979086 C113.158463,51.732486 114.617848,48.5034937 116.977322,46.1663184 C119.336175,43.828528 122.595117,43.6120317 126.19423,43.6120317 L126.19423,43.6120317 Z M101.364197,95.2783685 L150.685953,95.2783685 L145.128371,100.198738 L106.330204,100.198738 L106.330204,139.561691 L146.058256,139.561691 L146.058256,122.375457 L151.024262,117.978492 L151.024262,144.48206 L101.364197,144.48206 L101.364197,95.2783685 Z M77.1207745,60.8265584 L93.2944369,60.8265584 L93.2944369,68.2077272 L77.1207745,68.2077272 C75.7588472,68.2077272 74.5179663,68.7618838 73.6160154,69.6555459 C72.7146852,70.5485929 72.154768,71.7780701 72.154768,73.1274814 L72.154768,188.755542 C72.154768,191.451905 74.3975406,193.675297 77.1207745,193.675297 L175.267685,193.675297 C177.989057,193.675297 180.233071,191.45129 180.233071,188.755542 L180.233071,73.1274814 C180.233071,71.7780701 179.673154,70.5492079 178.771203,69.6555459 C177.870494,68.7618838 176.628992,68.2077272 175.267685,68.2077272 L159.094023,68.2077272 L159.094023,60.8265584 L175.267685,60.8265584 C178.684919,60.8265584 181.789914,62.2104122 184.037653,64.4374943 C186.286633,66.6658065 187.682081,69.7422674 187.682081,73.1274814 L187.682081,188.755542 C187.682081,195.524125 182.10029,201.056465 175.267685,201.056465 L77.1207745,201.056465 C70.286308,201.056465 64.7057582,195.525971 64.7057582,188.755542 L64.7057582,73.1274814 C64.7057582,69.7410373 66.101206,66.6651915 68.3495655,64.4374943 C70.5979249,62.2097972 73.7029205,60.8265584 77.1207745,60.8265584 L77.1207745,60.8265584 Z" id="Fill-1" fill="#FFFFFF" mask="url(#mask-2)"></path>
                    </g>
                    <mask id="mask-4" fill="white">
                        <use xlink:href="#path-3"></use>
                    </mask>
                    <g id="Clip-5"></g>
                    <path d="M90.1920485,160.451119 L162.197901,160.451119 L162.197901,155.530749 L90.1920485,155.530749 L90.1920485,160.451119 Z M90.1920485,173.369548 L162.197901,173.369548 L162.197901,168.449179 L90.1920485,168.449179 L90.1920485,173.369548 Z M112.08655,116.178867 C110.737038,114.649862 110.893467,112.326833 112.436033,110.989722 C113.978599,109.651997 116.323795,109.806374 117.673308,111.335378 L127.774165,122.742639 L156.016465,97.7391681 C157.543512,96.3860666 159.888087,96.5146112 161.253739,98.0276248 C162.619391,99.5406383 162.489654,101.863668 160.962607,103.216769 L130.024387,130.607234 C128.43961,132.059358 126.059651,131.961566 124.658617,130.377207 L112.08655,116.178867 Z" id="Fill-4" fill="#FFFFFF" mask="url(#mask-4)"></path>
                </g>
            </g>
        </g>
    </g>
</svg>

<?xml version="1.0" encoding="utf-8"?>
<!-- Generator: Adobe Illustrator 21.0.2, SVG Export Plug-In . SVG Version: 6.00 Build 0)  -->
<svg version="1.1" id="Layer_1" xmlns="http://www.w3.org/2000/svg" xmlns:xlink="http://www.w3.org/1999/xlink" x="0px" y="0px"
	 viewBox="0 0 250 248" style="enable-background:new 0 0 250 248;" xml:space="preserve">
<style type="text/css">
	.st0{fill:#007393;}
	.st1{filter:url(#Adobe_OpacityMaskFilter);}
	.st2{fill:#FFFFFF;}
	.st3{mask:url(#mask-2);fill:#FFFFFF;}
	.st4{filter:url(#Adobe_OpacityMaskFilter_1_);}
	.st5{mask:url(#mask-4);fill:#FFFFFF;}
</style>
<title>Appointment icon</title>
<desc>Created with Sketch.</desc>
<g id="Page-1">
	<g id="HEATH-HOMEPAGE" transform="translate(-900.000000, -730.000000)">
		<g id="Group-9" transform="translate(241.000000, 705.000000)">
			<g id="Appointment-icon" transform="translate(659.000000, 25.000000)">
				<g id="Group-3" transform="translate(0.000000, 0.607666)">
					<ellipse id="Oval" class="st0" cx="125" cy="123.5" rx="125" ry="123.5"/>
					<g id="Clip-2">
					</g>
					<defs>
						<filter id="Adobe_OpacityMaskFilter" filterUnits="userSpaceOnUse" x="64.7" y="43.6" width="123" height="157.4">
							<feColorMatrix  type="matrix" values="1 0 0 0 0  0 1 0 0 0  0 0 1 0 0  0 0 0 1 0"/>
						</filter>
					</defs>
					<mask maskUnits="userSpaceOnUse" x="64.7" y="43.6" width="123" height="157.4" id="mask-2">
						<g class="st1">
							<polygon id="path-1" class="st2" points="126.2,201.1 64.7,201.1 64.7,43.6 126.2,43.6 187.7,43.6 187.7,201.1 							"/>
						</g>
					</mask>
					<path id="Fill-1" class="st3" d="M130.1,51.4c-1-1-2.4-1.6-4-1.6c-1.5,0-2.9,0.6-4,1.6c-1,1-1.6,2.4-1.6,3.9
						c0,1.5,0.6,2.9,1.6,3.9c0.9,0.9,2.2,1.5,3.7,1.6h0.6c1.4-0.1,2.7-0.7,3.7-1.6c1-1,1.6-2.4,1.6-3.9
						C131.8,53.8,131.2,52.4,130.1,51.4L130.1,51.4z M126.2,43.6c3.6,0,6.9,0.2,9.2,2.6c2.4,2.3,3.8,5.6,3.8,9.1v0h14.9v18.5H98.3
						V55.3h14.9v0c0-3.6,1.5-6.8,3.8-9.1C119.3,43.8,122.6,43.6,126.2,43.6L126.2,43.6z M101.4,95.3h49.3l-5.6,4.9h-38.8v39.4h39.7
						v-17.2l5-4.4v26.5h-49.7V95.3z M77.1,60.8h16.2v7.4H77.1c-1.4,0-2.6,0.6-3.5,1.4c-0.9,0.9-1.5,2.1-1.5,3.5v115.6
						c0,2.7,2.2,4.9,5,4.9h98.1c2.7,0,5-2.2,5-4.9V73.1c0-1.3-0.6-2.6-1.5-3.5c-0.9-0.9-2.1-1.4-3.5-1.4h-16.2v-7.4h16.2
						c3.4,0,6.5,1.4,8.8,3.6c2.2,2.2,3.6,5.3,3.6,8.7v115.6c0,6.8-5.6,12.3-12.4,12.3H77.1c-6.8,0-12.4-5.5-12.4-12.3V73.1
						c0-3.4,1.4-6.5,3.6-8.7C70.6,62.2,73.7,60.8,77.1,60.8L77.1,60.8z"/>
				</g>
				<g id="Clip-5">
				</g>
				<defs>
					<filter id="Adobe_OpacityMaskFilter_1_" filterUnits="userSpaceOnUse" x="90.2" y="96.8" width="72" height="76.6">
						<feColorMatrix  type="matrix" values="1 0 0 0 0  0 1 0 0 0  0 0 1 0 0  0 0 0 1 0"/>
					</filter>
				</defs>
				<mask maskUnits="userSpaceOnUse" x="90.2" y="96.8" width="72" height="76.6" id="mask-4">
					<g class="st4">
						<polygon id="path-3" class="st2" points="64.7,201.7 187.7,201.7 187.7,44.2 64.7,44.2 						"/>
					</g>
				</mask>
				<path id="Fill-4" class="st5" d="M90.2,160.5h72v-4.9h-72V160.5z M90.2,173.4h72v-4.9h-72V173.4z M112.1,116.2
					c-1.3-1.5-1.2-3.9,0.3-5.2c1.5-1.3,3.9-1.2,5.2,0.3l10.1,11.4l28.2-25c1.5-1.4,3.9-1.2,5.2,0.3s1.2,3.8-0.3,5.2L130,130.6
					c-1.6,1.5-4,1.4-5.4-0.2L112.1,116.2z"/>
			</g>
		</g>
	</g>
</g>
</svg>
